X:14
T:Le trente et un du mois d'août
R:Chanson
O:France
B:Le livre des Chansons (Henri Davenson) n°14
Z:<anamnese@caramail.com> -- http://anamnese.fr.st
M:6/8
L:1/8
Q:1/4=110
K:G
D D D | G3 B B B | G3 B B B | B3 G B G | A3 D D D |
 G3 B B B | G3 B B B | B3 G B G | A3 A B c |
 d3 G G F | E3 D z D | G3/2 G/ G G2 F/ G/ |
 A3 A B c | B3 A G A | G2 z D D D | G3/2 G/ G B B B | G3 B B B |
 B3 G B G | A3 A B c | d3 G G F | E3 D z D | G3/2 G/ G A G A |
HB3 A B c | B3 A G A | G2 z ||
W:Au trente et un du mois d'août,
W:On vit venir sous vent à nous
W:Un frégate d'Angleterre
W:Qui fendait la mer-z-et les flots,
W:C'était pour attaquer Bordeaux.

